X: 23905
T: Loch Leven Castle
R: hornpipe
M: 4/4
K: Adorian
|:A2AB AGEG|AGAB cBcd|efga gedB|B2GF G2cB|
A2AB AGEG|AGAB cBcd|efga gedB|1 c2A2 A2cB:|2 c2A2 A4||
ea2g ageg|egab a2gf|efga gedB|B2GF G4|
ea2g abag|egab a2gf|efga gedB|c2A2 A4|
ea2g ageg|egab a2gf|efga gedB|B2GF G2cB|
AGAB AGEG|AGAB cBcd|efga gedB|c2A2 A2cB||

